X: 22880
T: Lark On The Strand, The
R: jig
M: 6/8
K: Adorian
A3 AGA|BGE ~G3|ABA GBd|~e3 edB|
~A3 AGA|BGE G3|ABA GAB|dBG BdB|
A3 AGA|BGE ~G3|ABA GBd|egf edB|
~A3 AGA|BGE G3|ABA GAB|dBG ~B2A|
|:GBd g2d|gba gdB|GBd g2d|~e3 edB|
GA/B/d g3|gba gdg|~a3 age|edg edB:|

